src/pos-icons/tea-outline.svg

<svg height="24" viewBox="0 0 24 24" width="24" xmlns="http://www.w3.org/2000/svg"><path d="m4 19h16v2h-16zm17.4-15.4c-.4-.4-.8-.6-1.4-.6h-16v10c0 1.1.4 2 1.2 2.8s1.7 1.2 2.8 1.2h6c1.1 0 2-.4 2.8-1.2s1.2-1.7 1.2-2.8v-3h2c.6 0 1-.2 1.4-.6s.6-.8.6-1.4v-3c0-.5-.2-1-.6-1.4m-5.4 1.4v3 2 3c0 .6-.2 1-.6 1.4s-.8.6-1.4.6h-6c-.6 0-1-.2-1.4-.6s-.6-.9-.6-1.4v-8h4v1.4l-1.8 1.4c-.2.1-.2.3-.2.4v4.3c0 .3.2.5.5.5h4c.3 0 .5-.2.5-.5v-4.3c0-.2-.1-.3-.2-.4l-1.8-1.4v-1.4zm4 3h-2v-3h2z"/></svg>

<?xml version="1.0" encoding="UTF-8"?><!DOCTYPE svg PUBLIC "-//W3C//DTD SVG 1.1//EN" "http://www.w3.org/Graphics/SVG/1.1/DTD/svg11.dtd"><svg xmlns="http://www.w3.org/2000/svg" xmlns:xlink="http://www.w3.org/1999/xlink" version="1.1" id="mdi-tea-outline" width="24" height="24" viewBox="0 0 24 24"><path d="M4,19H20V21H4V19M21.4,3.6C21,3.2 20.6,3 20,3H4V13C4,14.1 4.4,15 5.2,15.8C6,16.6 6.9,17 8,17H14C15.1,17 16,16.6 16.8,15.8C17.6,15 18,14.1 18,13V10H20C20.6,10 21,9.8 21.4,9.4C21.8,9 22,8.6 22,8V5C22,4.5 21.8,4 21.4,3.6M16,5V8L16,10V13C16,13.6 15.8,14 15.4,14.4C15,14.8 14.6,15 14,15H8C7.4,15 7,14.8 6.6,14.4C6.2,14 6,13.5 6,13V5H10V6.4L8.2,7.8C8,7.9 8,8.1 8,8.2V12.5C8,12.8 8.2,13 8.5,13H12.5C12.8,13 13,12.8 13,12.5V8.2C13,8 12.9,7.9 12.8,7.8L11,6.4V5H16M20,8H18V5H20V8Z" /></svg>
